public/logos/P5.svg

<?xml version="1.0" encoding="UTF-8"?>
<svg xmlns="http://www.w3.org/2000/svg" xmlns:xlink="http://www.w3.org/1999/xlink" width="176pt" height="46.15pt" viewBox="0 0 176 46.15" version="1.1">
<defs>
<clipPath id="clip1">
  <path d="M 103 0 L 137 0 L 137 46.148438 L 103 46.148438 Z M 103 0 "/>
</clipPath>
</defs>
<g id="surface1">
<path style=" stroke:none;fill-rule:nonzero;fill:rgb(35.916138%,25.527954%,63.742065%);fill-opacity:1;" d="M 168.160156 16.914062 C 168.167969 11.847656 164.0625 7.695312 159.035156 7.6875 C 153.9375 7.679688 149.804688 11.796875 149.796875 16.886719 C 149.789062 21.945312 153.894531 26.046875 158.96875 26.054688 C 164.039062 26.0625 168.152344 21.976562 168.160156 16.914062 Z M 176 18.125 C 175.839844 18.910156 175.699219 19.699219 175.519531 20.480469 C 174.28125 25.875 171.121094 29.777344 166.160156 32.136719 C 158.308594 35.871094 148.976562 33.140625 144.269531 25.839844 C 139.445312 18.355469 141.527344 8.128906 148.894531 3.121094 C 156.609375 -2.121094 166.671875 -0.628906 172.40625 6.636719 C 174.316406 9.054688 175.429688 11.828125 175.804688 14.894531 C 175.835938 15.136719 175.933594 15.371094 176 15.605469 C 176 16.445312 176 17.285156 176 18.125 "/>
<g clip-path="url(#clip1)" clip-rule="nonzero">
<path style=" stroke:none;fill-rule:nonzero;fill:rgb(35.916138%,25.527954%,63.742065%);fill-opacity:1;" d="M 120.011719 7.632812 C 115.21875 7.414062 110.773438 11.476562 110.550781 16.28125 C 110.304688 21.601562 114.246094 25.972656 119.675781 26.117188 C 124.804688 26.257812 128.910156 22.332031 129.179688 17.332031 C 129.46875 11.921875 125.019531 7.625 120.011719 7.632812 Z M 136.679688 16.542969 C 136.679688 20.957031 136.714844 25.375 136.664062 29.789062 C 136.636719 32.476562 136.363281 35.136719 135.527344 37.71875 C 133.949219 42.566406 130.585938 45.296875 125.605469 46.066406 C 122.765625 46.503906 120.222656 45.21875 118.890625 42.808594 C 118.835938 42.710938 118.769531 42.617188 118.730469 42.511719 C 118.34375 41.46875 118.035156 40.859375 119.703125 40.574219 C 122.226562 40.148438 124.53125 39.179688 126.320312 37.242188 C 127.40625 36.066406 128.113281 34.691406 128.523438 33.152344 C 128.578125 32.9375 128.65625 32.703125 128.621094 32.492188 C 128.558594 32.128906 128.511719 31.628906 128.269531 31.464844 C 128.039062 31.308594 127.511719 31.402344 127.207031 31.5625 C 124.546875 32.976562 121.722656 33.855469 118.710938 33.804688 C 113.492188 33.71875 109.375 31.429688 106.347656 27.203125 C 101.84375 20.917969 102.09375 11.851562 107.09375 5.996094 C 111.480469 0.851562 117.074219 -0.921875 123.667969 0.722656 C 125.414062 1.160156 127.023438 1.960938 128.460938 3.058594 C 128.875 3.375 129.210938 3.394531 129.660156 3.140625 C 131.152344 2.308594 132.671875 1.527344 134.402344 1.339844 C 134.808594 1.292969 135.238281 1.316406 135.636719 1.410156 C 136.398438 1.585938 136.675781 1.988281 136.675781 2.792969 C 136.679688 7.375 136.679688 11.960938 136.679688 16.542969 "/>
</g>
<path style=" stroke:none;fill-rule:nonzero;fill:rgb(35.916138%,25.527954%,63.742065%);fill-opacity:1;" d="M 0 1.5625 C 0.503906 1.464844 0.902344 1.359375 1.308594 1.308594 C 3.09375 1.070312 4.875 0.996094 6.59375 1.6875 C 8.144531 2.308594 9.246094 3.339844 9.800781 4.984375 C 11.257812 9.292969 12.773438 13.582031 14.269531 17.878906 C 14.390625 18.222656 14.5 18.574219 14.675781 18.886719 C 15.019531 19.488281 15.554688 19.488281 15.914062 18.902344 C 16.070312 18.640625 16.179688 18.347656 16.296875 18.066406 C 18.246094 13.464844 20.226562 8.875 22.125 4.253906 C 22.882812 2.414062 24.246094 1.515625 26.109375 1.230469 C 28.085938 0.925781 30.597656 1.09375 32.722656 1.628906 C 32.449219 1.835938 32.210938 2.011719 31.972656 2.191406 C 30.292969 3.460938 29.132812 5.105469 28.492188 7.101562 C 28.066406 8.425781 28.175781 9.785156 28.605469 11.058594 C 29.246094 12.957031 30.039062 14.800781 30.800781 16.65625 C 31.078125 17.328125 31.417969 17.976562 31.78125 18.601562 C 31.917969 18.835938 32.230469 19.160156 32.414062 19.132812 C 32.675781 19.089844 32.988281 18.808594 33.109375 18.550781 C 34.796875 14.964844 36.449219 11.359375 38.132812 7.769531 C 38.628906 6.710938 39.105469 5.621094 39.773438 4.671875 C 41.257812 2.542969 43.394531 1.496094 45.976562 1.394531 C 46.941406 1.355469 47.910156 1.425781 49.039062 1.449219 C 48.667969 2.320312 48.390625 3.003906 48.085938 3.675781 C 44.210938 12.25 40.347656 20.828125 36.4375 29.382812 C 36.03125 30.277344 35.445312 31.15625 34.738281 31.832031 C 33.015625 33.484375 30.621094 33.175781 29.382812 31.125 C 28.59375 29.820312 28.019531 28.378906 27.386719 26.980469 C 26.355469 24.722656 25.351562 22.449219 24.335938 20.179688 C 24.300781 20.105469 24.277344 20.015625 24.222656 19.960938 C 23.980469 19.71875 23.726562 19.488281 23.480469 19.253906 C 23.269531 19.492188 22.980469 19.695312 22.855469 19.972656 C 21.976562 21.964844 21.128906 23.96875 20.273438 25.972656 C 19.648438 27.433594 19.050781 28.910156 18.390625 30.359375 C 17.570312 32.148438 15.589844 33.128906 13.753906 32.699219 C 12.644531 32.4375 11.867188 31.777344 11.445312 30.707031 C 10.394531 28.03125 9.335938 25.359375 8.28125 22.683594 C 5.675781 16.058594 3.070312 9.433594 0.464844 2.808594 C 0.324219 2.449219 0.191406 2.082031 0 1.5625 "/>
<path style=" stroke:none;fill-rule:nonzero;fill:rgb(35.916138%,25.527954%,63.742065%);fill-opacity:1;" d="M 67.492188 32.683594 C 67.492188 32.179688 67.492188 31.820312 67.492188 31.457031 C 67.492188 25.03125 67.550781 18.601562 67.472656 12.175781 C 67.417969 7.511719 69.449219 4.089844 73.550781 2.113281 C 79.839844 -0.910156 86.109375 -0.660156 92.0625 3.101562 C 94.894531 4.890625 96.5 7.601562 97.039062 10.917969 C 97.082031 11.191406 97.082031 11.476562 97.082031 11.753906 C 97.082031 17.621094 97.082031 23.488281 97.082031 29.359375 C 97.082031 29.527344 97.089844 29.695312 97.078125 29.859375 C 96.96875 31.820312 96.066406 32.675781 94.097656 32.683594 C 92.5625 32.691406 91.027344 32.683594 89.390625 32.683594 C 89.371094 32.351562 89.339844 32.054688 89.339844 31.761719 C 89.316406 25.699219 89.28125 19.636719 89.277344 13.574219 C 89.273438 10.980469 88.015625 9.191406 85.722656 8.191406 C 83.027344 7.015625 80.324219 7.160156 77.773438 8.675781 C 76.054688 9.695312 75.207031 11.25 75.203125 13.265625 C 75.191406 18.605469 75.160156 23.941406 75.140625 29.277344 C 75.136719 29.5 75.144531 29.726562 75.125 29.949219 C 74.976562 31.789062 74.042969 32.667969 72.203125 32.683594 C 70.671875 32.695312 69.140625 32.683594 67.492188 32.683594 "/>
<path style=" stroke:none;fill-rule:nonzero;fill:rgb(35.916138%,25.527954%,63.742065%);fill-opacity:1;" d="M 52.5625 32.632812 C 52.5625 32.175781 52.5625 31.8125 52.5625 31.453125 C 52.5625 23.347656 52.5625 15.242188 52.5625 7.140625 C 52.5625 3.890625 54.558594 1.613281 57.78125 1.273438 C 58.714844 1.171875 59.664062 1.257812 60.679688 1.257812 C 60.695312 1.601562 60.722656 1.898438 60.722656 2.199219 C 60.726562 11.109375 60.726562 20.027344 60.722656 28.941406 C 60.722656 29.273438 60.722656 29.613281 60.664062 29.941406 C 60.351562 31.742188 59.257812 32.671875 57.425781 32.695312 C 56.058594 32.710938 54.6875 32.699219 53.320312 32.695312 C 53.101562 32.695312 52.882812 32.660156 52.5625 32.632812 "/>
</g>
</svg>

<svg xmlns="http://www.w3.org/2000/svg" width="176pt" height="61.533" viewBox="0 0 176 46.15"><defs><clipPath id="a"><path d="M103 0h34v46.148h-34Zm0 0"/></clipPath></defs><path d="M168.16 16.914c.008-5.066-4.097-9.219-9.125-9.227-5.097-.007-9.23 4.11-9.238 9.2-.008 5.058 4.098 9.16 9.172 9.168 5.07.008 9.183-4.078 9.191-9.14m7.84 1.211c-.16.785-.3 1.574-.48 2.355-1.239 5.395-4.399 9.297-9.36 11.657-7.851 3.734-17.183 1.004-21.89-6.297-4.825-7.485-2.743-17.711 4.625-22.719 7.714-5.242 17.777-3.75 23.511 3.516 1.91 2.418 3.024 5.191 3.399 8.258.03.242.129.476.195.71z" style="stroke:none;fill-rule:nonzero;fill:#5c41a3;fill-opacity:1"/><g clip-path="url(#a)"><path d="M120.012 7.633c-4.793-.219-9.239 3.844-9.461 8.648-.246 5.32 3.695 9.692 9.125 9.836 5.129.14 9.234-3.785 9.504-8.785.289-5.41-4.16-9.707-9.168-9.7m16.668 8.91c0 4.414.035 8.832-.016 13.246-.027 2.688-.3 5.348-1.137 7.93-1.578 4.847-4.941 7.578-9.922 8.347-2.84.438-5.382-.847-6.714-3.257-.055-.098-.121-.192-.16-.297-.387-1.043-.696-1.653.972-1.938 2.524-.426 4.828-1.394 6.617-3.332 1.086-1.176 1.793-2.55 2.203-4.09.055-.215.133-.449.098-.66-.062-.363-.11-.863-.351-1.027-.23-.156-.758-.063-1.063.098-2.66 1.414-5.484 2.292-8.496 2.242-5.219-.086-9.336-2.375-12.363-6.602-4.504-6.285-4.254-15.351.746-21.207 4.386-5.144 9.98-6.918 16.574-5.273 1.746.437 3.355 1.238 4.793 2.336.414.316.75.336 1.2.082 1.491-.832 3.01-1.614 4.741-1.801a3.6 3.6 0 0 1 1.235.07c.761.176 1.039.578 1.039 1.383q.005 6.875.004 13.75" style="stroke:none;fill-rule:nonzero;fill:#5c41a3;fill-opacity:1"/></g><path d="M0 1.563c.504-.098.902-.204 1.309-.254 1.785-.239 3.566-.313 5.285.379 1.55.62 2.652 1.652 3.207 3.296 1.457 4.309 2.972 8.598 4.469 12.895.12.344.23.695.406 1.008.344.601.879.601 1.238.015.156-.261.266-.554.383-.836 1.95-4.601 3.93-9.191 5.828-13.812.758-1.84 2.121-2.738 3.984-3.024 1.977-.304 4.489-.136 6.614.399-.274.207-.512.383-.75.562a9.76 9.76 0 0 0-3.48 4.91c-.427 1.325-.317 2.684.112 3.958.641 1.898 1.434 3.742 2.196 5.597.277.672.617 1.32.98 1.946.137.234.45.558.633.53.262-.042.574-.323.695-.581 1.688-3.586 3.34-7.192 5.024-10.781.496-1.06.972-2.149 1.64-3.098 1.485-2.129 3.622-3.176 6.204-3.277.964-.04 1.933.03 3.062.054-.371.871-.648 1.555-.953 2.227-3.875 8.574-7.738 17.152-11.648 25.707-.407.894-.993 1.773-1.7 2.449-1.722 1.652-4.117 1.344-5.355-.707-.79-1.305-1.363-2.746-1.996-4.145-1.032-2.257-2.035-4.53-3.051-6.8-.035-.075-.059-.164-.113-.22-.243-.241-.496-.472-.743-.706-.21.238-.5.441-.625.719-.878 1.992-1.726 3.996-2.582 6-.625 1.46-1.222 2.937-1.882 4.386-.82 1.79-2.801 2.77-4.637 2.34-1.11-.261-1.887-.922-2.309-1.992-1.05-2.676-2.11-5.348-3.164-8.023L.465 2.809C.325 2.449.19 2.082 0 1.562M67.492 32.684v-1.227c0-6.426.059-12.855-.02-19.281-.054-4.664 1.977-8.086 6.079-10.063C79.84-.91 86.109-.66 92.062 3.102c2.833 1.789 4.438 4.5 4.977 7.816.043.273.043.559.043.836v17.605c0 .168.008.336-.004.5-.11 1.961-1.012 2.817-2.98 2.825-1.535.007-3.07 0-4.707 0-.02-.332-.051-.63-.051-.922-.024-6.063-.059-12.125-.063-18.188-.004-2.594-1.261-4.383-3.554-5.383-2.696-1.175-5.399-1.03-7.95.485-1.718 1.02-2.566 2.574-2.57 4.59-.012 5.34-.043 10.675-.062 16.011-.004.223.004.45-.016.672-.148 1.84-1.082 2.719-2.922 2.735-1.531.011-3.062 0-4.71 0M52.563 32.633V7.14c0-3.25 1.996-5.528 5.218-5.868.934-.101 1.883-.015 2.899-.015.015.344.043.64.043.941.004 8.91.004 17.828 0 26.742 0 .332 0 .672-.059 1-.312 1.801-1.406 2.73-3.238 2.754-1.367.016-2.739.004-4.106 0-.218 0-.437-.035-.758-.062" style="stroke:none;fill-rule:nonzero;fill:#5c41a3;fill-opacity:1"/></svg>
